X: 01021
T: CHERRY HILL
C: Bob McQuillen '73
B: Bob's Note Book 1 #21
%R: jig
Z: 2019 John Chambers <jc:trillian.mit.edu>
M: 6/8
L: 1/8
K: G
d \
| gfe dBd | edB G2A | B2e dBA | Bee e2d |\
| gfe dBd | efg d2B | cde dBG | AGF G2 :|
|: F \
| EBB AGA | Bee efg | aba gfe | fdd edc |\
| BcB AGA | Bee ega | bag agf | e4 z :|
%%begintext align
%% Happy New Year to all at BRUSH FARM, DUBLIN.
%% Love to Jim, Libby, Joe, Larry, +Raphie Haddock
%%endtext

%%sep 1 1 500

%%sep 1 1 500

